X:1
T:Kyrie
T:Kyrie
T:dalla "Missa quatuor vocum" 
T:Domenico Scarlatti  (1685-1757)
T:Domenico Scarlatti  (1685-1757)
T:Domenico Scarlatti  (1685-1757)
T:Domenico Scarlatti  (1685-1757)
T:Domenico Scarlatti  (1685-1757)
T:Domenico Scarlatti  (1685-1757)
T:Domenico Scarlatti  (1685-1757)
T:Domenico Scarlatti  (1685-1757)
T:Domenico Scarlatti  (1685-1757)
C:dalla "Missa quatuor vocum"
Z:Domenico Scarlatti  (1685-1757)
%%score [ 1 2 3 4 ]
L:1/8
Q:1/4=120
M:2/2
K:F
V:1 treble nm="Soprano"
V:2 treble nm="Alto"
V:3 treble-8 nm="Tenor"
V:4 bass nm="Bass"
V:1
 z2 G4 G2 | (B3 c d2) B2 | (A4 d4- | d2) c2 B2 (c2- | c2 BA B4- | B4) (A2 B2 | c3 B A4 | G6) G2 | %8
w: Ky- ri-|e _ _ e-|le- *|* i- son e-||* le- *|­- * *|* i-|
 ^F2 G4 G2 | (B3 c d2) B2 | (A4 G4- | G2 ^FE D2 d2- | d2 c2) BA G2 | z8 | z8 | z2 G4 G2 | %16
w: son Ky- ri-|e _ _ e-|le- *||­- * i- * son|||Ky- ri-|
 (B3 c d2) B2- | B2 (AG A2 B2 | c8 | B8- | B2) AG A4 | G4 G4 | (B3 c d2) B2 | (A2 G4) ^F2 | G8 | %25
w: e _ _ e-|* le- * * *|­-||* * i- son|Ky- ri-|e _ _ e-|le- * i-|son|
 z2 F4 F2 | (A3 B) c2 A2 | G2 G4 G2 | (B3 c d2) B2 | (A2 d2 c2 B2 | A4 G4 | ^FG A4 G2- | %32
w: Ky- ri-|e _ e- lei-|son Ky- ri-|e _ _ e-|le- * * *|­- *||
 G2 ^FE) F4 | G8 ||[M:3/4] G2 B2 d2- | d2 c2 B2 | A4 c2 | (B4 A2 | F2 G4 | A4 G2 | F6 | G3 A =B2 | %42
w: * * * i-|son|Chri- ste e-|* le- i-|son e-|le- *|||||
 c2 _e4 | d2 c4 | d4 c2 | B6 | c6 | A2) G2 ^F2 | G2 B2 d2- | d2 c2 B2 | A4 c2- | c2 (B2 A2 | %52
w: ||­- *|||* i- son|Chri- ste e-|* le- i-|son e-|­ le- *|
 B4 A2 | G6 | A4 G2 | F6 | G2 FE D2 | E3 F G2) | F4 E2 | D2 z2 z2 | z6 | z6 | F2 A2 (c2- | %63
w: ||||||­- i-|son|||Chri- ste e-|
 c2 B2 A2) | B3 A G2 | z2 z2 G2 | B2 d2 (c2- | c2 B2 A2 | B6- | B2 A2 G2 | ^F3 G A2 | B4) A2 | %72
w: |le- i- son|Chri-|ste e- le-|||||* i-|
 G4 d2- | d2 (c4- | c2 B2 A2 | d3 c B2 | A6) | A6 | =B6 ||[M:2/2] z2 d4 B2 | c2 d2 (B2 c2 | d4 c4 | %82
w: son e-|* le-||||i-|son|Ky- ri-|e e- le- *||
 B4 ABcd | _e2 d4 c2- | c2 B4 A2 | G4 A3 B | c2 B3 A) G2 | A4 d4 | B2 (c2 d2) B2 | (B2 c2) d4 | %90
w: |||­- * *|* * * i-|son Ky-|ri- e _ e-|le- * i-|
 G4 z4 | z4 z2 d2- | d2 B2 c2 d2 | (B3 c d3 _e | f4 e4 | d4 c4 | B4 A4- | A4 AGF)E | D4 z4 | %99
w: son|Ky-|* ri- e e-|le- * * *||||­- * * * i-|son|
 z4 d4 | B4 c2 d2 | (B2 c2 d2 B2 | A2 B2) A4 | G2 d4 c2- | c2 B4 (A2 | G2) G2 (A3 B | c2 B3 A) G2 | %107
w: Ky-|ri- e e-|le- * * *|* * i-|son e- le-|* i- son|_ e- le- *|* * * i-|
 A4 d4 | =B2 c2 d2 B2 | c4 B4 | A4 G4 | z4 z2 d2- | d2 B2 c2 d2 | (B2 c2 d4 | c4 B4- | B2 c4 B2- | %116
w: son _|_ _ _ _|||Ky-|* ri- e e-|le- * *||­- * *|
 B2 A2 B4- | B2 A2 GABc | F2 G2 A4 | B6) A2 | G4 z2 d2- | d2 B2 c2 d2 | (B2 c2 d4- | dcBA G4 | %124
w: |||* i-|son Ky-|­ ri- e e-|le- * *||
 ^FG A4 G2- | G2 ^FE) F4 | !fermata!G8 |] %127
w: |* * * i-|son|
V:2
 z8 | z8 | z2 D4 D2 | (_E3 F G2) E2 | (D4 G4- | G2) G2 F2 G2- | G2 (F6 | _E4 D2 C2 | D8- | D8 | %10
w: ||Ky- ri-|e _ _ e-|le- *|* i- son e-|­ le-||||
 ^C2) D4 C2 | z2 D4 D2 | (_E3 F G2) E2 | (D2 G2 F2 G2- | G2 ^FE F4 | G8 | F8- | F4 F2 B2- | %18
w: * i- son|Ky- ri-|e _ _ e-|le- * * *|||||
 B2 AG A4 | G4 F2 _E2 | F6 _E2 | D2 _E4) E2 | D8 | z8 | z2 G,4 G,2 | (B,3 C D2) B,2 | %26
w: ­- * * *|||* * i-|son||Ky- ri-|e _ _ e-|
 A,2 F,2 z2 C2- | C2 C2 (_E3 F) | G2 _E2 D4 | D8- | D2 D4 ^C2 | D8- | D8- | D8 ||[M:3/4] z6 | %35
w: lei- son Ky-|* ri- e _|e- lei- son|e-|­ le- i-|son|_|||
 D2 _E2 G2- | G2 F2 _E2 | D4 F2- | F2 (_E2 D2 | C3 D _E2 | F2 D2 C2 | D2 _E2 F2 | G6 | F3 G A2 | %44
w: Chri- ste e-|* le- i-|son e-|* le- *||||||
 B4 A2 | G4 F2 | A4 G2 | ^F2 G2) A2 | D2 z2 z2 | D2 _E2 G2- | G2 (F2 _E2- | E2 D2) C2 | G4 F2 | %53
w: ­- *|||* * i-|son|Chri- ste e-|* le- *|­- * i-|son e-|
 (=E6 | F4 E2 | D6 | E2 D4- | D2) ^C4 | D2 z2 z2 | B,2 D2 F2- | F2 E2 D2 | E2 (F2 G2) | (A6- | %63
w: le-||||* i-|son|Chri- ste e-|* le- i-|son e- *|le-|
 A2 G2 ^F2 | G4 =F2- | F2 _E2) D2 | D2 z2 z2 | z6 | D2 _E2 (F2- | G2 F2 _E2) | D3 E ^F2 | %71
w: ||­- * i-|son||Chri- ste e-||le- * i-|
 G2 z2 z2 | _E2 G2 B2- | B2 A2 G2 | ^F2 G2 (A2- | A2 G4- | G3 ^F E2) | ^F6 | G6 ||[M:2/2] z8 | %80
w: son|Chri- ste e-|* le- i-|son e- le-|||i-|son||
 z2 G4 _E2 | F2 G2 (_E2 F2 | G4 F4 | _EFGA B4 | A2 G4 F2- | F2 E2 F4 | G4 F2 G2- | G2) ^F2 G2 G2- | %88
w: Ky- ri-|e e- le- *||||­- * *||* i- son Ky-|
 G2 _E2 F2 G2 | (_EF G2 A2 B2- | BA G2 A4 | G4 F4 | G6 F_E | D3 _E F2) G2 | F4 z2 F2- | %95
w: * ri- e e-|le- * * * *||­- *||* * * i-|son Ky-|
 F2 D2 E2 F2 | (D2 E2 F4 | E4 F3 G | A2 B2 AG ^F2 | GF) _E2 D4 | z2 G2 _E2 F2 | (G2 _E2) (F2 G2 | %102
w: * ri- e e-|le- * *|­- * *||* * i- son|Ky- ri- e|e- * le- *|
 F2 G4) (F_E) | D2 B4 G2 | A2 G4 F2- | F2 E2 F2 F2 | (G4 F2 G2- | G2 ^F2 G4- | G4 F4 | %109
w: * * i- *|son e- le-||* i- son e-|le- * *|||
 G2 F3 _E D2 | _E2 D4 EF | G4) F4 | G4 z2 G2- | G2 _E2 F2 G2 | (_E2 F2 G4- | G4 F4 | G2 F4 E2 | %117
w: ­- * * *||* i-|son Ky-|* ri- e e-|le- * *|­- *||
 FG A2 B4- | BA) G4 ^F2 | G2 D2 (_E2 F2 | G4 ^F2 GA | B4 A4 | G6) ^F2 | G2 (G3 F _E2) | D8 | D8 | %126
w: |* * * i-|son e- le- *||­- *|* i-|son e- * *|le-|i-|
 !fermata!D8 |] %127
w: son|
V:3
 z8 | z8 | z8 | z8 | z2 G4 G2 | (B3 c d2) B2 | (A4 d4- | d2) c2 B2 (c2- | c2 BA B4- | B4) (A2 G2 | %10
w: ||||Ky- ri-|e _ _ e-|le- *|* i- son e-||* le- *|
 A4 e4 | A3 G ^F)E D2 | G4 G4 | (B3 c d2) B2 | (A6 B2- | B2) c2 B4 | z2 B4 B2 | (d3 _e f2) d2 | %18
w: |* * * i- son|Ky- ri-|e _ _ e-|le- *|* i- son|Ky- ri-|e _ _ e-|
 (c4 f4- | f2 _e2 d2 e2 | d2 cB c2) c2 | (=B2 c2) z2 G2- | G2 G2 (B3 c | d2) B2 A2 (d2- | %24
w: le- *||* * * * i-|son _ Ky-|* ri- e _|_ e- le- *|
 d2 c2) B4 | B4 z4 | z2 c4 c2 | (_e3 f) g2 (e2 | dcB)A G4 | z2 D4 D2 | F4 G4 | (A4 G4) | A8 | %33
w: ­- * i-|son|Ky- ri-|e _ e- le-|* * * i- son|Ky- ri-|e e-|le- *|i-|
 =B8 ||[M:3/4] z6 | z6 | z6 | G2 B2 d2- | d2 c2 B2 | A4 c2- | c2 (B2 A2 | =B2 c2 d2 | _e2 c2 B2 | %43
w: son||||Chri- ste e-|* le- i-|son e-|* le- *|||
 A3) B c2 | B2 d2 f2- | f2 _e2 d2 | c4 _e2 | (d4 c2 | B3) A G2 | z6 | z6 | z6 | G2 B2 d2- | %53
w: * i- son|Chri- ste e-|* le- i-|son e-|le- *|* i- son||||Chri- ste e-|
 d2 c2 B2 | A2 c4 | (c2 B2 A2 | G2 B4) | A6 | d4 c2 | (B3 c d2 | B6 | c4 B2) | c6 | d6 | %64
w: * le- i-|son e-|le- * *||i-|son e-|le- * *|||i-|son|
 G2 B2 (d2- | d2 c2 B2) | (B3 A G2 | F3) G A2 | (G2 g3 f) | (_ed c4- | c2) B2 A2 | G2 (g3 f | %72
w: Chri- ste e-|­- * *|le- * *|* i- son|e- * *|le- * *|* i- son|e- le- *|
 _e4 d2 | _e4) e2 | d4 c2 | (B3 c) d2 | d6- | d6- | d6 ||[M:2/2] z8 | z8 | z8 | z2 d4 B2 | %83
w: ­- *|* i-|son e-|le- * i-|son|_|||||Ky- ri-|
 c2 d2 (B2 c2 | d4 c4 | B4 ABcd | _e6 d2 | c6 B)A | G4 z4 | z4 z2 d2- | d2 B2 c2 d2 | (B2 c2) d4 | %92
w: e e- le- *||­- * * * *||* * i-|son|Ky-|* ri- e e-|le- * i-|
 G4 z4 | z2 d4 B2 | c2 d2 B2 c2 | d2 g4 (f2- | f2 e4 d2- | d2 ^c2 d2 f2- | f2 d2 _e2 d2- | %99
w: son|Ky- ri-|e e- le- i-|son e- le-||­- * * *||
 d2 c4) BA | G4 z4 | z4 z2 d2- | d2 B2 c2 d2 | (B3 c d2 _e2 | d4 c4 | B4 ABcd | _e6 d2 | c4 =B3 c | %108
w: * * i- *|son|Ky-|* ri- e e-|le- * * *|||||
 d2) _e2 d4 | z2 d4 B2 | c2 d2 (B4- | B2 c2 d3 c | B2 G2 A2 BA | G2 A4 B2- | B2 A2 GABc | %115
w: * i- son|Ky- ri-|e e- le-|||||
 d2 _e2 d4 | c4) B4 | c4 z2 d2- | d2 B2 c4 | d2 (B2 c2 d2 | B2 c2 d3 c | BA G2 A4 | BA G2 A4 | %123
w: ­- * *|* i-|son Ky-|* ri- e|e- le- * *||­- * * *||
 B3) c d2 c2- | c2 (c2 B3 A/G/) | A8 | !fermata!=B8 |] %127
w: * i- son e-|* le- * * *|i-|son|
V:4
 z8 | z8 | z8 | z8 | z8 | z8 | z2 D,4 D,2 | (_E,3 F, G,2) E,2 | (D,2 G,4 G,2- | %9
w: ||||||Ky- ri-|e _ _ e-|le- * *|
 G,2) G,2 F,2 (G,2- | G,2 F,2) E,4 | D,8 | z8 | z8 | z2 D,4 D,2 | (_E,3 F, G,2) E,2 | D,3 C, B,,4 | %17
w: * i- son e-|* * lei-|son|||Ky- ri-|e _ _ e-|le- i- son|
 z8 | z2 F,4 F,2 | (G,3 A, B,2) G,2 | (F,8- | F,2 _E,D, C,4 | B,,3) A,, G,,4 | z2 D,4 D,2 | %24
w: |Ky- ri-|e _ _ e-|le-||* i- son|Ky- ri-|
 (_E,3 F, G,2) E,2 | (D,2 B,,4) D,2 | F,8 | z4 z2 G,2- | G,2 G,2 (B,3 C | D2) B,2 (A,2 G,2 | %30
w: e _ _ e-|le- * i-|son|Ky-|* ri- e _|_ e- le- *|
 F,4 =E,4 | D,8) | D,8 | G,8 ||[M:3/4] z6 | z6 | z6 | z6 | D,2 _E,2 G,2- | G,2 F,2 _E,2 | %40
w: ­- *||i-|son|||||Chri- ste e-|* le- i-|
 D,4 F,2- | F,2 (_E,2 D,2 | C,3 D, _E,2) | F,6 | B,,2 z2 z2 | z6 | F,2 A,2 C2- | C2 B,2 A,2 | %48
w: son e-|* le- *||i-|son||Chri- ste e-|* le- i-|
 G,4 (B,2- | B,2 A,2 G,2) | (D,4 _E,2 | F,4) F,2 | G,2 z2 z2 | z6 | z6 | z6 | z6 | z6 | %58
w: son e-||le- *|­- i-|son||||||
 D,2 F,2 A,2- | A,2 G,2 F,2 | G,4 B,2- | B,2 (A,2 G,2 | F,4 _E,2) | D,6 | z6 | D,2 _E,2 G,2- | %66
w: Chri- ste e-|* le- i-|son e-|* le- *|* i-|son||Chri- ste e-|
 G,2 F,2 _E,2 | D,4 F,2- | F,2 (_E,2 B,,2 | C,4) C,2 | D,6 | G,,2 B,,2 D,2- | D,2 C,2 B,,2 | C,6 | %74
w: * le- i-|son e-|* le- *|* i-|son|Chri- ste e-|­ le- i-|son|
 D,6 | D,6- | D,6 | D,6 | G,6 ||[M:2/2] z8 | z8 | z8 | z8 | z2 G,4 _E,2 | F,2 G,2 (_E,2 F,2 | %85
w: e-|le-||i-|son|||||Ky- ri-|e e- le- *|
 G,4 F,4 | _E,F,G,A, B,4) | A,4 G,4 | z4 z2 G,2- | G,2 _E,2 F,2 G,2 | (_E,F, G,4 F,2- | %91
w: ­- *||i- son|Ky-|* ri- e e-|le- * * *|
 F,2 E,2 D,4 | _E,6) F,2 | G,2 B,4 G,2 | A,2 B,2 (G,2 A,2 | B,6 A,2- | A,2 G,2 F,3) G, | %97
w: ­- * *|* i-|son Ky- ri-|e e- le- *||* * * i-|
 A,4 z2 D,2- | D,2 B,,2 C,2 D,2 | (B,,2 C,2 D,4 | E,3 D, C,2 B,,)A,, | G,,4 z4 | z8 | z2 G,4 _E,2 | %104
w: son Ky-|* ri- e e-|le- * *|* * * * i-|son||Ky- ri-|
 F,2 G,2 (_E,2 F,2 | G,4 F,4 | _E,F,G,A,) B,4 | A,4 z2 G,2- | G,2 _E,2 F,2 G,2 | (_E,2 F,2 G,4- | %110
w: e e- le- *||* * * * i-|son Ky-|* ri- e e-|le- * *|
 G,2 F,4 _E,2- | E,F,G,A, B,3) A, | G,4 z4 | z8 | z4 z2 G,2- | G,2 _E,2 F,2 G,2 | (_E,2 F,2 G,4 | %117
w: |* * * * * i-|son||Ky-|­ ri- e e-|le- * *|
 F,4 _E,F,G,A, | B,4) A,4 | G,2 G,4 (F,2- | F,2 _E,2 D,C,) (B,,A,,) | G,,2 G,4 (F,2- | %122
w: |* i-|son e- le-|* * * * i- *|son e- le-|
 F,2 _E,2 D,3 C, | B,,A,,G,,A,, B,,2 C,2 | D,8) | D,8 | !fermata!G,8 |] %127
w: |||i-|son|

